X:0340
M:6/8
L:1/8
Q:3/8=120
P:ABA % Aird uses a da capo
K:G
P:A
P:B
  d2d e2f|gfe d3 |B2B c2d|edc B2
d|dcB ABc|cBA B2d|dcB ABG|FGE D2|]

